!!!COM: Joplin, Scott
!!!CDT: 1868/11/24/-1917/04/01/
!!!OTL: The Favorite 
!!!ONB: Rag
!!!ODT: 1902///
**kern	**kern	**dynam
*staff2	*staff1	*staff1/2
*Ipiano	*Ipiano	*Ipiano
*>[I,A,A1,A,A2,B,B1,B,B2,C,D,D1,D,D2,E,E1,E,E2]	*>[I,A,A1,A,A2,B,B1,B,B2,C,D,D1,D,D2,E,E1,E,E2]	*>[I,A,A1,A,A2,B,B1,B,B2,C,D,D1,D,D2,E,E1,E,E2]
*>norep[I,A,A2,B,B2,C,D,D2,E,E2]	*>norep[I,A,A2,B,B2,C,D,D2,E,E2]	*>norep[I,A,A2,B,B2,C,D,D2,E,E2]
*clefF4	*clefG2	*clefG2
*k[b-e-]	*k[b-e-]	*k[b-e-]
*M2/4	*M2/4	*M2/4
*MM100	*MM100	*MM100
*>I	*>I	*>I
=1-	=1-	=1-
16B-LK	16b-LK	.
8A	8a	.
16B-Jk	16b-Jk	.
16cLL	16ccLL	.
16dJ	16ddJ	.
8cJ	8ccJ	.
=2	=2	=2
16FLL	16fLL	.
16G	16g	.
16E-	16e-	.
[16DJJ	[16dJJ	.
16DLL]	16dLL]	.
16EJ 16G	16b-	.
8C#J 8B-	16g	.
.	16eJJ	.
=3	=3	=3
8DL 8A	8fL	.
8AAJ 8A	8e-J 8g- 8cc	.
8BB-L 8B-	8d-L 8f 8dd-	.
8EEJ 8E	8b-J 8cc 8gg-	.
=4	=4	=4
8FF 8F	8a 8cc 8ff	.
8FFL 8F	8r	.
8GG 8G	8r	.
8AAJ 8A	8cc 8ee-	.
=5||!|:	=5||!|:	=5||!|:
*>A	*>A	*>A
8BB-L 8B-	8b-L 8dd	mf
8FJ 8B- 8d	16bb-L	.
.	[16ggJJ	.
8FFL	16ggLL]	.
.	16ff	.
8FJ 8B- 8d	16dd	.
.	16b-JJ	.
=6	=6	=6
8CL	16aLK	.
.	8ff	.
8FJ 8A 8e-	.	.
.	16ggJk	.
*	*^	*
8FFL	8ccL	4a	.
8FJ 8A 8c	8ee-J	.	.
*	*v	*v	*
=7	=7	=7
8BB-L	8b-L 8dd	.
8FJ 8B- 8d	16bb-L	.
.	[16ggJJ	.
8FFL	16ggLL]	.
.	16ff	.
8FJ 8B- 8d	16dd	.
.	16b-JJ	.
=8	=8	=8
8CL	16aLK	.
.	8ff	.
8FJ 8A 8e-	.	.
.	16ggJk	.
8FFL	8aL 8cc	.
8FJ	8fJ	.
=9	=9	=9
(8GL	(24eLL	.
.	24cc#	.
.	24b-J)	.
8C#J	8gJ	.
4D)	(24fLL	.
.	24b-	.
.	24ddJ)	.
.	8ffJ	.
=10	=10	=10
(8GL	(24eLL	.
.	24cc#	.
.	24b-J)	.
8C#J	8gJ	.
4D)	(24fLL	.
.	24b-	.
.	24ddJ)	.
.	16ffL	.
.	16ee-JJ	.
=11	=11	=11
8CL	16aLL 16gg	.
.	16ee-	.
8FJ 8A 8e-	16a 16gg	.
.	16ccJJ	.
8FFL	16ee-LL	.
.	16ff	.
8FJ 8A 8e-	16ee-	.
.	16ccJJ	.
=12	=12	=12
8BB-L	(16ddLL	.
.	16cc#	.
8FJ 8B- 8d	16dd	.
.	16b-JJ	.
8FFL	16ccLL	.
.	16b	.
8FJ 8A 8e-	16cc	.
.	16fJJ)	.
=13	=13	=13
8BB-L 8B-	8b-L 8dd	.
8FJ 8B- 8d	16bb-L	.
.	[16ggJJ	.
8FFL	16ggLL]	.
.	16ff	.
8FJ 8B- 8d	16dd	.
.	16b-JJ	.
=14	=14	=14
8CL	16aLK	.
.	8ff	.
8FJ 8A 8e-	.	.
.	16ggJk	.
*	*^	*
8FFL	(8ccL	4a	.
8FJ 8A 8c	8ee-J	.	.
*	*v	*v	*
=15	=15	=15
8BB-L	8b-L) 8dd	.
8FJ 8B- 8d	16bb-L	.
.	[16ggJJ	.
8FFL	16ggLL]	.
.	16ff	.
8FJ 8B- 8d	16dd	.
.	16b-JJ	.
=16	=16	=16
8CL	16aLK	.
.	8ff	.
8FJ 8A 8e-	.	.
.	16ggJk	.
8FFL	8aL 8cc	.
8FJ	8fJ	.
=17	=17	=17
(8GL	(24eLL	.
.	24cc#	.
.	24b-J)	.
8C#J	8gJ	.
4D)	(24fLL	.
.	24b-	.
.	24ddJ)	.
.	8ffJ	.
=18	=18	=18
(8GL	(24eLL	.
.	24cc#	.
.	24b-J)	.
8C#J	8gJ	.
4D)	(24fLL	.
.	24b-	.
.	24ddJ)	.
.	16ffL	.
.	16ee-JJ	.
=19	=19	=19
8CL	16aLL 16gg	.
.	16ee-	.
8FJ 8A 8e-	16a 16gg	.
.	16ccJJ	.
8FFL	16ee-LL	.
.	16ff	.
8FJ 8A 8e-	16ee-	.
.	16ccJJ	.
=20	=20	=20
*>A1	*>A1	*>A1
*^	*	*
4.d	8B-L	4.b-	.
.	8FFJ 8F	.	.
.	8GGL 8G	.	.
8r	8AAJ 8A	8cc 8ee-	.
*v	*v	*	*
=21:|!	=21:|!	=21:|!
*>A2	*>A2	*>A2
*^	*	*
4d	8B-L	4b-	.
.	8FF 8F	.	.
4ryy	8BBB-J 8BB-	8b- 8dd 8bb-	.
.	8r	8r	.
*v	*v	*	*
=22!|:	=22!|:	=22!|:
*>B	*>B	*>B
8GGL	8ddL	mf
8GJ 8B- 8d	16ggL	.
.	[16ddJJ	.
8DL	16ddLL]	.
.	16cc#J	.
8GJ 8B- 8d	8ddJ	.
=23	=23	=23
8CL	8ee-L	.
8GJ 8c 8e-	16ddL	.
.	[16ccJJ	.
8CL	16ccLL]	.
.	16gg	.
8GJ 8c 8e-	16ee-	.
.	16ccJJ	.
=24	=24	=24
8GGL	8ddL	.
8GJ 8B- 8d	16ggL	.
.	[16ddJJ	.
8DL	16ddLL]	.
.	16cc#J	.
8GJ 8B- 8d	8ddJ	.
=25	=25	=25
*^	*	*
8CL	4.C	8ee-L	.
8GJ 8c 8e-	.	16ddL	.
.	.	[16ccJJ	.
8GL 8c 8e-	.	8ccL]	.
8dJ	8d	8ddJ	.
*v	*v	*	*
=26	=26	=26
(16e-LL	(16ccLL	.
16d	16b-	.
16c	16a	.
16dJJ)	16b-JJ)	.
8B-L	8gL	.
8DJ	8dJ	.
=27	=27	=27
(16cLL	(16e-LL	.
16B-	16d	.
16A	16c	.
16B-JJ)	16dJJ)	.
8GL	8B-L	.
8GGJ 8G	8dJ 8g 8b-	.
=28	=28	=28
4EE- 4E-	4g 4b- 4cc	<
4CC# 4C#	4g 4b- 4ee-	.
=29	=29	=29
8DD 8D	8f# 8a 8dd	f
8r	8r	.
4DD 4D	4dd 4ff# 4aa 4ddd	>
=30	=30	=30
8GGL	8ddL	mf
8GJ 8B- 8d	16ggL	.
.	[16ddJJ	.
8DL	16ddLL]	.
.	16cc#J	.
8GJ 8B- 8d	8ddJ	.
=31	=31	=31
8CL	8ee-L	.
8GJ 8c 8e-	16ddL	.
.	[16ccJJ	.
8CL	16ccLL]	.
.	16gg	.
8GJ 8c 8e-	16ee-	.
.	16ccJJ	.
=32	=32	=32
8GGL	8ddL	.
8GJ 8B- 8d	16ggL	.
.	[16ddJJ	.
8DL	16ddLL]	.
.	16cc#J	.
8GJ 8B- 8d	8ddJ	.
=33	=33	=33
8CL	8ee-L	.
8G 8c 8e-	16ddL	.
.	[16ccJJ	.
8GJ 8c 8e-	8ccL]	.
8r	8e-J	.
=34	=34	=34
8EE-L 8E-	(16gLL	.
.	16f#	.
8GJ 8c 8e-	16g	.
.	16aJJ	.
8EEL 8E	16b-LL	.
.	16a	.
8GJ 8B- 8c#	16b-	.
.	16ccJJ)	.
=35	=35	=35
8FFL 8F	8dd	.
8FJ 8B- 8d	4f 4b- 4dd 4ff	.
8EEL 8E	.	.
8EJ 8G 8B- 8c#	8g 8b- 8cc# 8gg	.
=36	=36	=36
8FFL 8F	4f 4b- 4dd	.
8FF#J 8F#	.	.
8GGL 8G	8eL 8b- 8dd	.
8AAJ 8A	8e-J 8f 8cc	.
=37	=37	=37
*>B1	*>B1	*>B1
4BB- 4B-	4d 4b-	.
4DD 4D	4d 4f# 4dd	.
=38:|!	=38:|!	=38:|!
*>B2	*>B2	*>B2
4BB- 4B-	4d 4b-	.
*	*^	*
4DD 4D	(8ffL	4a	.
.	8ee-J)	.	.
*	*v	*v	*
=39	=39	=39
*>C	*>C	*>C
8BB-L	8b-L 8dd	mf
8FJ 8B- 8d	16bb-L	.
.	[16ggJJ	.
8FFL	16ggLL]	.
.	16ff	.
8FJ 8B- 8d	16dd	.
.	16b-JJ	.
=40	=40	=40
8CL	16aLK	.
.	8ff	.
8FJ 8A 8e-	.	.
.	16ggJk	.
*	*^	*
8FFL	8ccL	4a	.
8FJ 8A 8c	8ee-J	.	.
*	*v	*v	*
=41	=41	=41
8BB-L	8b-L 8dd	.
8FJ 8B- 8d	16bb-L	.
.	[16ggJJ	.
8FFL	16ggLL]	.
.	16ff	.
8FJ 8B- 8d	16dd	.
.	16b-JJ	.
=42	=42	=42
8CL	16aLK	.
.	8ff	.
8FJ 8A 8e-	.	.
.	16ggJk	.
8FFL	8aL 8cc	.
8FJ	8fJ	.
=43	=43	=43
(8GL	(24eLL	.
.	24cc#	.
.	24b-J)	.
8C#J	8gJ	.
4D)	(24fLL	.
.	24b-	.
.	24ddJ)	.
.	8ffJ	.
=44	=44	=44
(8GL	(24eLL	.
.	24cc#	.
.	24b-J)	.
8C#J	8gJ	.
4D)	(24fLL	.
.	24b-	.
.	24ddJ)	.
.	16ffL	.
.	16ee-JJ	.
=45	=45	=45
8CL	16aLL 16gg	.
.	16ee-	.
8FJ 8A 8e-	16a 16gg	.
.	16ccJJ	.
8FFL	16ee-LL	.
.	16ff	.
8FJ 8A 8e-	16ee-	.
.	16ccJJ	.
=46	=46	=46
8BB-L	(16ddLL	.
.	16cc#	.
8FJ 8B- 8d	16dd	.
.	16b-JJ	.
8FFL	16ccLL	.
.	16b	.
8FJ 8A 8e-	16cc	.
.	16fJJ)	.
=47	=47	=47
8BB-L 8B-	8b-L 8dd	.
8FJ 8B- 8d	16bb-L	.
.	[16ggJJ	.
8FFL	16ggLL]	.
.	16ff	.
8FJ 8B- 8d	16dd	.
.	16b-JJ	.
=48	=48	=48
8CL	16aLK	.
.	8ff	.
8FJ 8A 8e-	.	.
.	16ggJk	.
*	*^	*
8FFL	(8ccL	4a	.
8FJ 8A 8c	8ee-J	.	.
*	*v	*v	*
=49	=49	=49
8BB-L	8b-L) 8dd	.
8FJ 8B- 8d	16bb-L	.
.	[16ggJJ	.
8FFL	16ggLL]	.
.	16ff	.
8FJ 8B- 8d	16dd	.
.	16b-JJ	.
=50	=50	=50
8CL	16aLK	.
.	8ff	.
8FJ 8A 8e-	.	.
.	16ggJk	.
8FFL	8aL 8cc	.
8FJ	8fJ	.
=51	=51	=51
(8GL	(24eLL	.
.	24cc#	.
.	24b-J)	.
8C#J	8gJ	.
4D)	(24fLL	.
.	24b-	.
.	24ddJ)	.
.	8ffJ	.
=52	=52	=52
(8GL	(24eLL	.
.	24cc#	.
.	24b-J)	.
8C#J	8gJ	.
4D)	(24fLL	.
.	24b-	.
.	24ddJ)	.
.	16ffL	.
.	16ee-JJ	.
=53	=53	=53
8CL	16aLL 16gg	.
.	16ee-	.
8FJ 8A 8e-	16a 16gg	.
.	16ccJJ	.
8FFL	16ee-LL	.
.	16ff	.
8FJ 8A 8e-	16ee-	.
.	16ccJJ	.
=54	=54	=54
*^	*	*
4d	8B-L	4b-	.
.	8FF 8F	.	.
4ryy	8BBB-J 8BB-	8b- 8dd 8bb-	.
.	8r	8r	.
*v	*v	*	*
=55!|:	=55!|:	=55!|:
*>D	*>D	*>D
*k[b-e-a-]	*k[b-e-a-]	*k[b-e-a-]
8E-L	4g 4ee- 4gg	p
8GJ 8B- 8e-	.	.
8E-L	4f# 4ee- 4ff#	.
8AJ 8c 8e-	.	.
=56	=56	=56
8E-L	4g 4ee- 4gg	.
8GJ 8B- 8e-	.	.
8E-L 8e-	4b- 4gg 4bb-	.
8D-J 8d-	.	.
=57	=57	=57
8CL 8c	16r	.
.	16ee-LL	.
8A-J 8c 8e-	16a- 16aa-	.
.	16ee-JJ	.
8CL 8c	16ffLK	.
.	8a- 8aa-	.
8C-J 8c-	.	.
.	16ee-Jk	.
=58	=58	=58
8BB-L 8B-	4g 4ee- 4gg	.
8GJ 8B- 8e-	.	.
8FFL 8F	4b- 4dd 4bb-	.
8BBB-J 8BB-	.	.
=59	=59	=59
8EE-L 8E-	4g 4ee- 4gg	.
8GJ 8B- 8e-	.	.
8E-L	8f#L 8ee- 8ff#	.
8GJ 8B- 8e-	8gJ 8ee- 8gg	.
=60	=60	=60
8DL	4b- 4dd 4gg 4bb-	<
8GJ 8B- 8d	.	.
8DL	4dd 4gg 4bb- 4ddd	.
8GJ 8B- 8d	.	.
=61	=61	=61
8DL	16r	mf
.	16ff#LL	.
8F#J 8c 8d	16dd 16ddd	.
.	16ff#JJ	.
8DL	16aaLL	.
.	16ccc	.
8F#J 8c 8d	16bb-	.
.	16aaJJ	.
=62	=62	=62
4G 4B- 4d	4gg	.
8FFL 8F	4b- 4dd 4bb-	>
8BBB-J 8BB-	.	.
=63	=63	=63
8EE-L 8E-	4g 4ee- 4gg	p
8GJ 8B- 8e-	.	.
8E-L	4f# 4ee- 4ff#	.
8AJ 8c 8e-	.	.
=64	=64	=64
8E-L	4g 4ee- 4gg	.
8GJ 8B- 8e-	.	.
8E-L 8e-	4b- 4gg 4bb-	.
8D-J 8d-	.	.
=65	=65	=65
8CL 8c	16r	.
.	16ee-LL	.
8A-J 8c 8e-	16a- 16aa-	.
.	16ee-JJ	.
8CL 8c	16ffLK	.
.	8a- 8aa-	.
8C-J 8c-	.	.
.	16ee-Jk	.
=66	=66	=66
8BB-L 8B-	4g 4ee- 4gg	.
8GJ 8B- 8e-	.	.
8E-L 8e-	4b- 4gg 4bb-	.
8D-J 8d-	.	.
=67	=67	=67
8CL 8c	16r	.
.	16ee-LL	.
8A-J 8c 8e-	16a- 16aa-	.
.	16ee-JJ	.
8CL 8c	16ffLK	.
.	8a- 8aa-	.
8C-J 8c-	.	.
.	16ee-Jk	.
=68	=68	=68
8BB-L 8B-	4g 4ee- 4gg	.
8GJ 8B- 8e-	.	.
8AAL 8A	4cc 4ee- 4ccc	.
8F#J 8c 8e-	.	.
=69	=69	=69
8BB-L 8B-	16b-LL 16bb-	.
.	16ee-J	.
8GJ 8B- 8e-	8b-J 8gg	.
8FFL 8F	8aL 8ee- 8gg	.
8BBB-J 8BB-	8a-J 8dd 8ff	.
=70	=70	=70
*>D1	*>D1	*>D1
8EE- 8E-	8gL 8ee-	.
8r	(16b-L	.
.	16ccJJ	.
4r	16ddLL	.
.	16ee-	.
.	16ff	.
.	16ff#JJ)	.
=71:|!	=71:|!	=71:|!
*>D2	*>D2	*>D2
8EE- 8E-	8g 8ee-	.
8r	16b-LL 16bb-	.
.	16b-JJ 16bb-	.
4r	8b-L 8bb-	.
.	8b-J 8bb-	.
=72!|:	=72!|:	=72!|:
*>E	*>E	*>E
8FL	4dd 4aa- 4ddd	f
8A-J 8B- 8d	.	.
8BB-L	4ff 4aa- 4fff	.
8A-J 8B- 8d	.	.
=73	=73	=73
8DL	4gg 4bb- 4ggg	.
8A-J 8B- 8d	.	.
8BB-L	4ff 4aa- 4fff	.
8A-J 8B- 8d	.	.
=74	=74	=74
8E-L	8ee-L 8gg 8eee-	.
8GJ 8B- 8e-	8ccJ 8gg 8ccc	.
8BB-L	[4b- [4gg [4bb-	.
8GJ 8B- 8e-	.	.
=75	=75	=75
8E-L	(8b-L] 8gg] 8bb-]	.
8GJ 8B- 8e-	16ee-L	.
.	16ffJJ	.
8BB-L	16ggLL	.
.	16aa-	.
8GJ 8B- 8e-	16bb-	.
.	16cccJJ)	.
=76	=76	=76
8FL	8ddL 8aa- 8ddd	.
8A-J 8B- 8d	8ccJ 8aa- 8ccc	.
8BB-L	[4b- [4aa- [4bb-	.
8A-J 8B- 8d	.	.
=77	=77	=77
8DL	(8b-L] 8aa-] 8bb-]	.
8A-J 8B- 8d	16ffL	.
.	16ggJJ	.
8BB-L	16aa-LL	.
.	16bb-	.
8A-J 8B- 8d	16ccc	.
.	16dddJJ)	.
=78	=78	=78
8E-L	8ee-L 8gg 8eee-	.
8GJ 8B- 8e-	8ccJ 8gg 8ccc	.
8BB-L	[4b- [4gg [4bb-	.
8GJ 8B- 8e-	.	.
=79	=79	=79
8E- 8G 8B- 8e-	8b-L] 8gg] 8bb-]	.
8r	16b-L 16bb-	.
.	16b-JJ 16bb-	.
4r	8b-L 8bb-	.
.	8b-J 8bb-	.
=80	=80	=80
8FL	4dd 4aa- 4ddd	.
8A-J 8B- 8d	.	.
8BB-L	4ff 4aa- 4fff	.
8A-J 8B- 8d	.	.
=81	=81	=81
8DL	4gg 4bb- 4ggg	.
8A-J 8B- 8d	.	.
8BB-L	4ff 4aa- 4fff	.
8A-J 8B- 8d	.	.
=82	=82	=82
8E-L	8ee-L 8gg 8eee-	.
8GJ 8B- 8e-	8ccJ 8gg 8ccc	.
8BB-L	4b- 4gg 4bb-	.
8GJ 8B- 8e-	.	.
=83	=83	=83
8E-L	4g 4ee- 4gg	.
8GJ 8B- 8e-	.	.
8E-L 8e-	4b- 4gg 4bb-	.
8D-J 8d-	.	.
=84	=84	=84
8CL 8c	16r	.
.	16ee-LL	.
8A-J 8c 8e-	16a- 16aa-	.
.	16ee-JJ	.
8CL 8c	16ffLK	.
.	8a- 8aa-	.
8C-J 8c-	.	.
.	16ee-Jk	.
=85	=85	=85
8BB-L 8B-	4g 4ee- 4gg	.
8GJ 8B- 8e-	.	.
8AAL 8A	4cc 4ee- 4ccc	.
8F#J 8c 8e-	.	.
=86	=86	=86
8BB-L 8B-	16b-LL 16bb-	.
.	16ee-J	.
8GJ 8B- 8e-	8b-J 8gg	.
8FFL 8F	8aL 8ee- 8gg	.
8BBB-J 8BB-	8a-J 8dd 8ff	.
=87	=87	=87
*>E1	*>E1	*>E1
8EE- 8E-	8gL 8ee-	.
8r	16b-L 16bb-	.
.	16b-JJ 16bb-	.
4r	8b-L 8bb-	.
.	8b-J 8bb-	.
=88:|!	=88:|!	=88:|!
*>E2	*>E2	*>E2
8EE-L 8E-	4g 4ee-	.
8BB-	.	.
8EE-J	8ee- 8gg 8eee-	.
8r	8r	.
==	==	==
*-	*-	*-
!!!ENC: Nate Sloan
!!!END: 2012/05/07
!!!OMB: Converted from MusicXML by Craig Sapp 2012/05/08
!!!EEV: 2018/06/01
